X: 36970
T: Shuffle The Pack
R: mazurka
M: 3/4
K: Gmajor
|:Bc|de dB G z|A/B/c AG E z|DG BG cB|AB A z Bc|
de dB G z|A/B/c AG E z|DG BG AF|GB G z:|
|:B/c/d|ef ga ge|d/e/g dB G z|AB cA FD|GB d2 B/c/d|
ef g z g/f/e|de dB G z|AB cA FA|GB G z:|

